img/gift.svg

<svg width="100" height="100" viewBox="0 0 100 100" fill="none" xmlns="http://www.w3.org/2000/svg">
<g clip-path="url(#clip0_13_176)">
<path d="M93.69 31.8401H64.13C70.5 28.9101 77 24.5301 79.57 22.0001C81.9344 19.6384 83.2638 16.4341 83.2656 13.0922C83.2675 9.75031 81.9418 6.54454 79.58 4.18014C77.2182 1.81573 74.014 0.486369 70.6721 0.484493C67.3302 0.482618 64.1244 1.80838 61.76 4.17014C58.53 7.40014 52.37 17.0001 49.92 24.6001C47.46 17.0001 41.31 7.40014 38.08 4.17014C36.9093 3.00006 35.5195 2.07203 33.9901 1.43904C32.4608 0.80605 30.8217 0.480493 29.1665 0.480958C27.5113 0.481422 25.8724 0.807898 24.3433 1.44175C22.8143 2.07559 21.4251 3.0044 20.255 4.17514C19.0849 5.34587 18.1569 6.73561 17.5239 8.26499C16.8909 9.79438 16.5654 11.4335 16.5658 13.0887C16.5663 14.7439 16.8928 16.3828 17.5266 17.9118C18.1605 19.4408 19.0893 20.8301 20.26 22.0001C22.81 24.5501 29.33 28.9301 35.7 31.8601H6.31C4.63902 31.8628 3.0371 32.5271 1.8546 33.7077C0.672102 34.8883 0.00528583 36.4892 0 38.1601L0 56.0601C0.0026446 57.7328 0.668295 59.3363 1.85108 60.5191C3.03386 61.7018 4.6373 62.3675 6.31 62.3701H8.31C8.06106 63.0528 7.93248 63.7735 7.93 64.5001V94.1601C7.93 95.8363 8.59585 97.4438 9.78109 98.6291C10.9663 99.8143 12.5738 100.48 14.25 100.48H85.76C86.59 100.48 87.4118 100.317 88.1786 99.9991C88.9453 99.6814 89.642 99.2159 90.2289 98.6291C90.8158 98.0422 91.2813 97.3455 91.5989 96.5787C91.9165 95.8119 92.08 94.9901 92.08 94.1601V64.5001C92.0775 63.7735 91.9489 63.0528 91.7 62.3701H93.7C95.371 62.3648 96.9718 61.698 98.1525 60.5155C99.3331 59.333 99.9974 57.7311 100 56.0601V38.1601C100 36.4857 99.3355 34.8797 98.1525 33.6948C96.9694 32.5098 95.3644 31.8428 93.69 31.8401ZM56.84 58.1801H42.77V37.3201H56.84V58.1801ZM56.31 19.6701C59 14.1901 62.66 8.93014 64.59 7.00014C66.2012 5.38895 68.3864 4.48379 70.665 4.48379C72.9436 4.48379 75.1288 5.38895 76.74 7.00014C78.3512 8.61133 79.2563 10.7966 79.2563 13.0751C79.2563 15.3537 78.3512 17.5389 76.74 19.1501C73 22.9101 59.64 30.8701 53.64 30.8701C53.3986 30.8749 53.1573 30.8548 52.92 30.8101C52.7 29.8601 52.93 26.4401 56.31 19.6701ZM23.09 7.00014C23.8879 6.2007 24.8356 5.56645 25.8789 5.13371C26.9221 4.70097 28.0405 4.47822 29.17 4.47822C30.2995 4.47822 31.4179 4.70097 32.4611 5.13371C33.5044 5.56645 34.4521 6.2007 35.25 7.00014C37.18 8.93014 40.8 14.1901 43.53 19.6701C46.9 26.4401 47.13 29.8601 46.91 30.8101C46.6761 30.8549 46.4381 30.8751 46.2 30.8701C40.2 30.8701 26.85 22.8701 23.09 19.1501C21.4809 17.5378 20.5772 15.353 20.5772 13.0751C20.5772 10.7973 21.4809 8.61245 23.09 7.00014ZM4 56.0601V38.1601C3.99999 37.5466 4.24305 36.958 4.67597 36.5232C5.1089 36.0884 5.69643 35.8428 6.31 35.8401H38.77V58.1801H14.24C13.7308 58.1823 13.2238 58.2461 12.73 58.3701H6.31C5.69816 58.3675 5.11213 58.1233 4.67949 57.6906C4.24685 57.258 4.00263 56.672 4 56.0601ZM14.24 96.4801C13.6247 96.4801 13.0346 96.2357 12.5995 95.8006C12.1644 95.3655 11.92 94.7754 11.92 94.1601V64.5001C11.9221 64.0464 12.0566 63.6031 12.3071 63.2247C12.5576 62.8463 12.9131 62.5493 13.33 62.3701H41.74V96.4801H14.24ZM45.74 96.4801V62.3701H53.69V96.4801H45.74ZM88.08 64.4801V94.1601C88.08 94.7754 87.8356 95.3655 87.4005 95.8006C86.9654 96.2357 86.3753 96.4801 85.76 96.4801H57.69V62.3701H86.69C87.1032 62.5523 87.4545 62.8506 87.7013 63.2287C87.948 63.6069 88.0796 64.0486 88.08 64.5001V64.4801ZM96 56.0601C95.9974 56.672 95.7532 57.258 95.3205 57.6906C94.8879 58.1233 94.3018 58.3675 93.69 58.3701H87.27C86.7762 58.2461 86.2692 58.1823 85.76 58.1801H60.84V35.8401H93.69C94.3036 35.8428 94.8911 36.0884 95.324 36.5232C95.757 36.958 96 37.5466 96 38.1601V56.0601Z" fill="#333333"/>
</g>
<defs>
<clipPath id="clip0_13_176">
<rect width="100" height="100" fill="white"/>
</clipPath>
</defs>
</svg>

<svg width="100" height="100" fill="none" xmlns="http://www.w3.org/2000/svg"><g clip-path="url(#a)"><path d="M93.69 31.84H64.13C70.5 28.91 77 24.53 79.57 22A12.6 12.6 0 1 0 61.76 4.17C58.53 7.4 52.37 17 49.92 24.6 47.46 17 41.31 7.4 38.08 4.17A12.604 12.604 0 1 0 20.26 22c2.55 2.55 9.07 6.93 15.44 9.86H6.31A6.32 6.32 0 0 0 0 38.16v17.9a6.32 6.32 0 0 0 6.31 6.31h2a6.28 6.28 0 0 0-.38 2.13v29.66a6.32 6.32 0 0 0 6.32 6.32h71.51a6.314 6.314 0 0 0 5.839-3.901 6.32 6.32 0 0 0 .481-2.419V64.5a6.282 6.282 0 0 0-.38-2.13h2a6.32 6.32 0 0 0 6.3-6.31v-17.9a6.32 6.32 0 0 0-6.31-6.32ZM56.84 58.18H42.77V37.32h14.07v20.86Zm-.53-38.51C59 14.19 62.66 8.93 64.59 7a8.591 8.591 0 1 1 12.15 12.15c-3.74 3.76-17.1 11.72-23.1 11.72a3.512 3.512 0 0 1-.72-.06c-.22-.95.01-4.37 3.39-11.14ZM23.09 7a8.59 8.59 0 0 1 12.16 0c1.93 1.93 5.55 7.19 8.28 12.67 3.37 6.77 3.6 10.19 3.38 11.14a3.396 3.396 0 0 1-.71.06c-6 0-19.35-8-23.11-11.72a8.6 8.6 0 0 1 0-12.15ZM4 56.06v-17.9a2.32 2.32 0 0 1 2.31-2.32h32.46v22.34H14.24a6.312 6.312 0 0 0-1.51.19H6.31A2.32 2.32 0 0 1 4 56.06Zm10.24 40.42a2.32 2.32 0 0 1-2.32-2.32V64.5a2.33 2.33 0 0 1 1.41-2.13h28.41v34.11h-27.5Zm31.5 0V62.37h7.95v34.11h-7.95Zm42.34-32v29.68a2.32 2.32 0 0 1-2.32 2.32H57.69V62.37h29a2.33 2.33 0 0 1 1.39 2.13v-.02ZM96 56.06a2.32 2.32 0 0 1-2.31 2.31h-6.42c-.494-.124-1-.188-1.51-.19H60.84V35.84h32.85A2.32 2.32 0 0 1 96 38.16v17.9Z" fill="#333"/></g><defs><clipPath id="a"><path fill="#fff" d="M0 0h100v100H0z"/></clipPath></defs></svg>
